X:1
T:Fair Flower of Northumberland
M:3/4
L:1/4
K:C
%%transpose +7
C/2D/2| E3/2 D/2 E| C3/2 A,/2 G,| G, A, C| {E}D3| E3/2 D/2 E| C2 E| G2 A|\
 G2 G/2F/2| E G G| G E D| C E G| D2G/2 F/2| E3/2 D/2 E| C A, G,| A,2 C|\
 C2||